X:1
T:12 New Songs by some of the best and best-known British composers
T:The Maid of Elsinore
T:To H.R.H. The Princess Louise (Marchioness of Lorne) 
T:12 New Songs
T:Charles Hubert Hastings Parry
T:8. The Maid of Elsinore
T:Harold Boulton 
T:Creative Commons copyright waiver (CC0 1.0 Universal)
T:Creative Commons copyright waiver (CC0 1.0 Universal)
T:Creative Commons copyright waiver (CC0 1.0 Universal)
T:Creative Commons copyright waiver (CC0 1.0 Universal)
T:Creative Commons copyright waiver (CC0 1.0 Universal)
T:Creative Commons copyright waiver (CC0 1.0 Universal)
T:Creative Commons copyright waiver (CC0 1.0 Universal)
T:Creative Commons copyright waiver (CC0 1.0 Universal)
C:Charles Hubert Hastings Parry
Z:Harold Boulton (also series editor)
Z:Creative Commons copyright waiver (CC0 1.0 Universal)
%%score 1 { 2 | 3 }
L:1/8
Q:1/4=154
M:4/4
K:Eb
V:1 treble nm="Voice"
V:2 treble nm="Piano"
V:3 bass 
V:1
"^Allegretto con moto" z8 | z8 | z8 | z8 | z2!p! E2 F2 B2 | G2 (FE) (GF) (DC) | B,8 | %7
w: ||||A tear- ful|boy king * O- * laf *|stood|
 z2 E!<(! F G2 =A2!<)! | (B4- B=A) (^FA) | D6 z z | z8 | z8 | z8 | z8 | z8 | z8 | z8 | %17
w: ’Mid his war- riors|grim _ _ and *|grey,||||||||
 z2!f! D D d2 d2 | G3 G c2 c2 | F3 z z2 z2 | z8 | z8 | z8 | z8 | z8 | z8 | z8 | z8 | z8 | %29
w: But the rough earls|laugh’d that O- din’s|seed||||||||||
 z2!mf! E2 F2 B2 | G2 (FE) (G F2) D | B,6 z2 | z8 | z8 | z8 | z8 | z8 | z8 | z6!f! B2 | %39
w: The moun- tain|pine grows * strong _ and|sure,|||||||Thus|
 B2 B2 E2 _G2 |!<(! B2 c2!<)! _d3 z | z8 | z8 | z8 | z8 | z8 | z8 | z8 | (e2 d2 c2) B2 | %49
w: O- laf’s arm wax’d|great in war,||||||||Maid _ _ of|
 (G2 FE F3) G | B,8 | z8 | z2!p! E2 F2 B2 |"^cresc." G2 z z z2 z2 | z8 | z8 | z8 | z8 | %58
w: El- * * * si-|nore.||’Twas ten long|years|||||
 (AG) F E c3 B | A2 A2 c3 A | F6 z2 | z8 | z8 | z8 | z8 | z2!p!!<(! c2!<)!!>(! d2!>)! c2 | %66
w: con- * quer- ing might Came|sail- ing home a-|gain;|||||He plac’d her|
 B2 E2 A3 B | G8 | z2!<(! G2!<)! c2 B2 | B2 E2 A3 A | F6 z2 | z8 | z8 | z8 | z8 | z8 | z8 | z8 | %78
w: hands with- in his|own,|Up- on her|brow the queen- ly|crown,||||||||
 z8 | z8 | z8 |] %81
w: |||
V:2
!p! [B,EG]2 ([G,F]E [A,F]D) [CDA]2 |!<(! [B,EG]2 ([G,F]E [A,F]D) [DAc]2!<)! | z8 | z8 | z8 | z8 | %6
 z8 | z8 | z8 | z8 | z8 | z8 | z8 | z8 | z8 | z8 | z8 | z8 | z8 | z8 | z8 | z8 | z8 | z8 | z8 | %25
 z8 | z8 | z8 | z8 | z8 | z8 | z8 | z8 | z8 | z8 | z8 | z8 | z8 | z8 | z8 | z8 | z8 | z8 | z8 | %44
 z8 | z8 | z8 | z8 | z8 | z8 | z8 | z8 | z8 | z8 | z8 | z8 | z8 | z8 | z8 | z8 | z8 | z8 | z8 | %63
 z8 | z8 | z8 | z8 | z8 | z8 | z8 | z8 | z8 | z8 | z8 | z8 | z8 | z8 | z8 | z8 | z8 | z8 |] %81
V:3
 E,,2 B,,2 B,2 B,,2 | F,,2 B,,2 B,2 B,,2 | z8 | z8 | z8 | z8 | z8 | z8 | z8 | z8 | z8 | z8 | z8 | %13
 z8 | z8 | z8 | z8 | z8 | z8 | z8 | z8 | z8 | z8 | z8 | z8 | z8 | z8 | z8 | z8 | z8 | z8 | z8 | %32
 z8 | z8 | z8 | z8 | z8 | z8 | z8 | z8 | z8 | z8 | z8 | z8 | z8 | z8 | z8 | z8 | z8 | z8 | z8 | %51
 z8 | z8 | z8 | z8 | z8 | z8 | z8 | z8 | z8 | z8 | z8 | z8 | z8 | z8 | z8 | z8 | z8 | z8 | z8 | %70
 z8 | z8 | z8 | z8 | z8 | z8 | z8 | z8 | z8 | z8 | z8 |] %81

